public/favicon-busy.svg

<svg viewBox="0 0 32 32" fill="none" xmlns="http://www.w3.org/2000/svg">
<rect width="32" height="32" rx="2" fill="#1D60BE"/>
<path d="M8 27.184V6H17.536C19.7973 6 21.5787 6.61867 22.88 7.856C24.1813 9.072 24.832 10.7253 24.832 12.816C24.832 14.9067 24.1813 16.5707 22.88 17.808C21.5787 19.024 19.7973 19.632 17.536 19.632H10.4V27.184H8ZM10.4 17.392H17.376C19.04 17.392 20.2987 16.9867 21.152 16.176C22.0053 15.3653 22.432 14.2453 22.432 12.816C22.432 11.408 22.0053 10.2987 21.152 9.488C20.2987 8.67733 19.04 8.272 17.376 8.272H10.4V17.392Z" fill="white"/>
<circle cx="21.5" cy="21.5" r="8" fill="white" stroke="#1D60BE"/>
<path d="
  M19.3333 16.2188
    C18.7375 16.2188 18.25 16.7063 18.25 17.3021
    V19.0192
    C18.25 19.3063 18.3638 19.5825 18.5696 19.7883
    L20.4167 21.6354
    L18.5642 23.4879
    C18.3637 23.6938 18.25 23.97 18.25 24.2571
    V25.9688
    C18.25 26.5646 18.7375 27.0521 19.3333 27.0521
    H23.6667
    C24.2625 27.0521 24.75 26.5646 24.75 25.9688
    V24.2571
    C24.75 23.97 24.6363 23.6938 24.4358 23.4933
    L22.5833 21.6354
    L24.4304 19.7938
    C24.6363 19.5879 24.75 19.3117 24.75 19.0246
    V17.3021
    C24.75 16.7063 24.2625 16.2188 23.6667 16.2188
    H19.3333
    Z
  M23.6667 24.0729
    V25.4271
    C23.6667 25.725 23.4229 25.9688 23.125 25.9688
    H19.875
    C19.5771 25.9688 19.3333 25.725 19.3333 25.4271
    V24.0729
    L21.5 21.9063
    L23.6667 24.0729
    Z
  M21.5 21.3646
    L19.3333 19.1979
    V17.8438
    C19.3333 17.5458 19.5771 17.3021 19.875 17.3021
    H23.125
    C23.4229 17.3021 23.6667 17.5458 23.6667 17.8438
    V19.1979
    L21.5 21.3646
    Z" fill="black"/>
</svg>

<svg viewBox="0 0 32 32" fill="none" xmlns="http://www.w3.org/2000/svg"><rect width="32" height="32" rx="2" fill="#1D60BE"/><path d="M8 27.184V6h9.536c2.261 0 4.043.619 5.344 1.856 1.301 1.216 1.952 2.87 1.952 4.96s-.65 3.755-1.952 4.992c-1.301 1.216-3.083 1.824-5.344 1.824H10.4v7.552H8zm2.4-9.792h6.976c1.664 0 2.923-.405 3.776-1.216.853-.81 1.28-1.93 1.28-3.36 0-1.408-.427-2.517-1.28-3.328-.853-.81-2.112-1.216-3.776-1.216H10.4v9.12z" fill="#fff"/><circle cx="21.5" cy="21.5" r="8" fill="#fff" stroke="#1D60BE"/><path stroke="#000" stroke-width="1.1" d="M18.24 16.625h5.97v2.485l-2.395 2.39 2.39 2.39v2.485H18.79V23.89l2.39-2.39-2.39-2.39v-2.48z"/></svg>
